assets/icons/qvision/forward_10.svg

<svg xmlns="http://www.w3.org/2000/svg" enable-background="new 0 0 24 24" height="24" viewBox="0 0 24 24" width="24"><g><rect fill="none" height="24" width="24"/></g><g><g><path d="M18,13c0,3.31-2.69,6-6,6s-6-2.69-6-6s2.69-6,6-6v4l5-5l-5-5v4c-4.42,0-8,3.58-8,8c0,4.42,3.58,8,8,8s8-3.58,8-8H18z"/><polygon points="10.86,15.94 10.86,11.67 10.77,11.67 9,12.3 9,12.99 10.01,12.68 10.01,15.94"/><path d="M12.25,13.44v0.74c0,1.9,1.31,1.82,1.44,1.82c0.14,0,1.44,0.09,1.44-1.82v-0.74c0-1.9-1.31-1.82-1.44-1.82 C13.55,11.62,12.25,11.53,12.25,13.44z M14.29,13.32v0.97c0,0.77-0.21,1.03-0.59,1.03c-0.38,0-0.6-0.26-0.6-1.03v-0.97 c0-0.75,0.22-1.01,0.59-1.01C14.07,12.3,14.29,12.57,14.29,13.32z"/></g></g></svg>

<svg width="24" height="24" viewBox="0 0 24 24" fill="none" xmlns="http://www.w3.org/2000/svg">
<g clip-path="url(#clip0_147_1450)">
<path d="M18 13C18 16.31 15.31 19 12 19C8.69 19 6 16.31 6 13C6 9.69 8.69 7 12 7V11L17 6L12 1V5C7.58 5 4 8.58 4 13C4 17.42 7.58 21 12 21C16.42 21 20 17.42 20 13H18Z" fill="#323232"/>
<path d="M10.86 15.94V11.67H10.77L9 12.3V12.99L10.01 12.68V15.94H10.86Z" fill="#323232"/>
<path d="M12.25 13.44V14.18C12.25 16.08 13.56 16 13.69 16C13.83 16 15.13 16.09 15.13 14.18V13.44C15.13 11.54 13.82 11.62 13.69 11.62C13.55 11.62 12.25 11.53 12.25 13.44ZM14.29 13.32V14.29C14.29 15.06 14.08 15.32 13.7 15.32C13.32 15.32 13.1 15.06 13.1 14.29V13.32C13.1 12.57 13.32 12.31 13.69 12.31C14.07 12.3 14.29 12.57 14.29 13.32Z" fill="#323232"/>
</g>
<defs>
<clipPath id="clip0_147_1450">
<rect width="24" height="24" fill="white"/>
</clipPath>
</defs>
</svg>
